Numix/16/status/indicator-keyboard-Ar-6.svg

<?xml version="1.0" encoding="UTF-8" standalone="no"?>
<svg
   xmlns:dc="http://purl.org/dc/elements/1.1/"
   xmlns:cc="http://creativecommons.org/ns#"
   xmlns:rdf="http://www.w3.org/1999/02/22-rdf-syntax-ns#"
   xmlns:svg="http://www.w3.org/2000/svg"
   xmlns="http://www.w3.org/2000/svg"
   xmlns:sodipodi="http://sodipodi.sourceforge.net/DTD/sodipodi-0.dtd"
   xmlns:inkscape="http://www.inkscape.org/namespaces/inkscape"
   viewBox="0 0 16 16"
   id="svg2"
   version="1.1"
   inkscape:version="0.91 r13725"
   sodipodi:docname="indicator-keyboard-Ar-6.svg">
  <metadata
     id="metadata14">
    <rdf:RDF>
      <cc:Work
         rdf:about="">
        <dc:format>image/svg+xml</dc:format>
        <dc:type
           rdf:resource="http://purl.org/dc/dcmitype/StillImage" />
      </cc:Work>
    </rdf:RDF>
  </metadata>
  <defs
     id="defs12" />
  <sodipodi:namedview
     pagecolor="#ffffff"
     bordercolor="#666666"
     borderopacity="1"
     objecttolerance="10"
     gridtolerance="10"
     guidetolerance="10"
     inkscape:pageopacity="0"
     inkscape:pageshadow="2"
     inkscape:window-width="640"
     inkscape:window-height="480"
     id="namedview10"
     showgrid="false"
     inkscape:zoom="14.75"
     inkscape:cx="8"
     inkscape:cy="8"
     inkscape:window-x="65"
     inkscape:window-y="24"
     inkscape:window-maximized="0"
     inkscape:current-layer="svg2" />
  <path
     style="fill:#ececec;fill-opacity:1"
     d="M 1.5996094 0 C 0.71320937 2.9605947e-16 0 0.71320937 0 1.5996094 L 0 14.400391 C 2.9605947e-16 15.286791 0.71320937 16 1.5996094 16 L 14.400391 16 C 15.286791 16 16 15.286791 16 14.400391 L 16 1.5996094 C 16 0.71320937 15.286791 0 14.400391 0 L 1.5996094 0 z M 4.5292969 4.859375 L 5.0683594 4.859375 C 5.2903594 5.321375 5.5012187 5.7821406 5.6992188 6.2441406 C 5.8972188 6.7061406 6.0949687 7.1893594 6.2929688 7.6933594 C 6.4969688 8.1913594 6.7040625 8.7231094 6.9140625 9.2871094 C 7.1240625 9.8451096 7.3516562 10.447703 7.5976562 11.095703 L 6.9238281 11.095703 C 6.8098281 10.789703 6.7016094 10.496844 6.5996094 10.214844 C 6.4976094 9.9328435 6.3987344 9.6567188 6.3027344 9.3867188 L 3.2695312 9.3867188 C 3.1675313 9.6567187 3.0648906 9.9328436 2.9628906 10.214844 C 2.8608906 10.496844 2.7564375 10.789703 2.6484375 11.095703 L 2.0097656 11.095703 C 2.2497656 10.447703 2.4735938 9.8451096 2.6835938 9.2871094 C 2.8935937 8.7231094 3.098875 8.1913594 3.296875 7.6933594 C 3.500875 7.1893594 3.7004375 6.7061406 3.8984375 6.2441406 C 4.0964375 5.7821406 4.3072969 5.321375 4.5292969 4.859375 z M 4.78125 5.5605469 C 4.55325 6.0765469 4.3312344 6.6027187 4.1152344 7.1367188 C 3.9052344 7.6707187 3.6869844 8.2452813 3.4589844 8.8632812 L 6.1132812 8.8632812 C 5.8852813 8.2452813 5.6632656 7.6707187 5.4472656 7.1367188 C 5.2312656 6.6027188 5.00925 6.0765469 4.78125 5.5605469 z M 10.042969 6.3535156 C 10.234969 6.3535156 10.414031 6.3684375 10.582031 6.3984375 C 10.756031 6.4284375 10.877359 6.4582812 10.943359 6.4882812 L 10.826172 6.9921875 C 10.778172 6.9681875 10.679297 6.9439219 10.529297 6.9199219 C 10.385297 6.8899219 10.193125 6.875 9.953125 6.875 C 9.701125 6.875 9.4977969 6.8936875 9.3417969 6.9296875 C 9.1917969 6.9656875 9.0909688 6.9955312 9.0429688 7.0195312 L 9.0429688 11.095703 L 8.4589844 11.095703 L 8.4589844 6.6582031 C 8.6089844 6.5922031 8.8160781 6.5269375 9.0800781 6.4609375 C 9.3440781 6.3889375 9.6649686 6.3535156 10.042969 6.3535156 z M 13.720703 8.8242188 L 13.744141 9.1464844 C 13.506241 9.1620844 13.286784 9.1993125 13.083984 9.2578125 C 12.885084 9.3124125 12.706781 9.4005844 12.550781 9.5214844 C 12.394781 9.6384843 12.265456 9.7893625 12.160156 9.9765625 C 12.054856 10.163763 11.982359 10.394969 11.943359 10.667969 C 12.048659 10.613369 12.176019 10.566344 12.324219 10.527344 C 12.472419 10.484444 12.629176 10.462891 12.796875 10.462891 C 13.015275 10.462891 13.201416 10.498159 13.353516 10.568359 C 13.505616 10.634659 13.627103 10.722838 13.720703 10.835938 C 13.814303 10.949037 13.882881 11.080316 13.925781 11.228516 C 13.968681 11.376716 13.990234 11.533466 13.990234 11.697266 C 13.990234 11.849366 13.966722 12.000244 13.919922 12.152344 C 13.873122 12.304444 13.798666 12.443559 13.697266 12.568359 C 13.599766 12.689259 13.476319 12.789188 13.324219 12.867188 C 13.176019 12.945188 12.997716 12.984375 12.791016 12.984375 C 12.365916 12.984375 12.042612 12.835463 11.820312 12.539062 C 11.601912 12.238762 11.492188 11.821409 11.492188 11.287109 C 11.492188 10.495409 11.682247 9.8958281 12.060547 9.4863281 C 12.442746 9.0768281 12.995303 8.8554188 13.720703 8.8242188 z M 12.761719 10.794922 C 12.582319 10.794922 12.425563 10.816475 12.289062 10.859375 C 12.156462 10.898375 12.031063 10.9454 11.914062 11 C 11.906262 11.0663 11.902344 11.119203 11.902344 11.158203 L 11.902344 11.292969 C 11.902344 11.476269 11.9141 11.650653 11.9375 11.814453 C 11.9648 11.978253 12.011825 12.121294 12.078125 12.246094 C 12.148325 12.370894 12.240416 12.470822 12.353516 12.544922 C 12.466616 12.615122 12.609657 12.650391 12.785156 12.650391 C 12.929456 12.650391 13.052897 12.624919 13.154297 12.574219 C 13.255697 12.519619 13.337991 12.449081 13.400391 12.363281 C 13.462791 12.277481 13.507856 12.177553 13.535156 12.064453 C 13.566356 11.951353 13.582031 11.833784 13.582031 11.708984 C 13.582031 11.396984 13.511494 11.165778 13.371094 11.017578 C 13.234594 10.869378 13.030819 10.794922 12.761719 10.794922 z "
     id="path4" />
</svg>

<svg xmlns="http://www.w3.org/2000/svg" viewBox="0 0 16 16">
 <path d="m 1.6 0 c -0.886 0 -1.6 0.713 -1.6 1.6 l 0 12.801 c 0 0.886 0.713 1.6 1.6 1.6 l 12.801 0 c 0.886 0 1.6 -0.713 1.6 -1.6 l 0 -12.801 c 0 -0.886 -0.713 -1.6 -1.6 -1.6 l -12.801 0 z m 2.93 4.859 l 0.539 0 c 0.222 0.462 0.433 0.923 0.631 1.385 c 0.198 0.462 0.396 0.945 0.594 1.449 c 0.204 0.498 0.411 1.03 0.621 1.594 c 0.21 0.558 0.438 1.161 0.684 1.809 l -0.674 0 c -0.114 -0.306 -0.222 -0.599 -0.324 -0.881 c -0.102 -0.282 -0.201 -0.558 -0.297 -0.828 l -3.033 0 c -0.102 0.27 -0.205 0.546 -0.307 0.828 c -0.102 0.282 -0.206 0.575 -0.314 0.881 l -0.639 0 c 0.24 -0.648 0.464 -1.251 0.674 -1.809 c 0.21 -0.564 0.415 -1.096 0.613 -1.594 c 0.204 -0.504 0.404 -0.987 0.602 -1.449 c 0.198 -0.462 0.409 -0.923 0.631 -1.385 z m 0.252 0.701 c -0.228 0.516 -0.45 1.042 -0.666 1.576 c -0.21 0.534 -0.428 1.109 -0.656 1.727 l 2.654 0 c -0.228 -0.618 -0.45 -1.193 -0.666 -1.727 c -0.216 -0.534 -0.438 -1.06 -0.666 -1.576 z m 5.262 0.793 c 0.192 0 0.371 0.015 0.539 0.045 c 0.174 0.03 0.295 0.06 0.361 0.09 l -0.117 0.504 c -0.048 -0.024 -0.147 -0.048 -0.297 -0.072 c -0.144 -0.03 -0.336 -0.045 -0.576 -0.045 c -0.252 0 -0.455 0.019 -0.611 0.055 c -0.15 0.036 -0.251 0.066 -0.299 0.09 l 0 4.076 l -0.584 0 l 0 -4.437 c 0.15 -0.066 0.357 -0.131 0.621 -0.197 c 0.264 -0.072 0.585 -0.107 0.963 -0.107 z m 3.678 2.471 l 0.023 0.322 c -0.238 0.016 -0.457 0.053 -0.66 0.111 c -0.199 0.055 -0.377 0.143 -0.533 0.264 c -0.156 0.117 -0.285 0.268 -0.391 0.455 c -0.105 0.187 -0.178 0.418 -0.217 0.691 c 0.105 -0.055 0.233 -0.102 0.381 -0.141 c 0.148 -0.043 0.305 -0.064 0.473 -0.064 c 0.218 0 0.405 0.035 0.557 0.105 c 0.152 0.066 0.274 0.154 0.367 0.268 c 0.094 0.113 0.162 0.244 0.205 0.393 c 0.043 0.148 0.064 0.305 0.064 0.469 c 0 0.152 -0.024 0.303 -0.07 0.455 c -0.047 0.152 -0.121 0.291 -0.223 0.416 c -0.098 0.121 -0.221 0.221 -0.373 0.299 c -0.148 0.078 -0.327 0.117 -0.533 0.117 c -0.425 0 -0.748 -0.149 -0.971 -0.445 c -0.218 -0.3 -0.328 -0.718 -0.328 -1.252 c 0 -0.792 0.19 -1.391 0.568 -1.801 c 0.382 -0.409 0.935 -0.631 1.66 -0.662 z m -0.959 1.971 c -0.179 0 -0.336 0.022 -0.473 0.064 c -0.133 0.039 -0.258 0.086 -0.375 0.141 c -0.008 0.066 -0.012 0.119 -0.012 0.158 l 0 0.135 c 0 0.183 0.012 0.358 0.035 0.521 c 0.027 0.164 0.074 0.307 0.141 0.432 c 0.07 0.125 0.162 0.225 0.275 0.299 c 0.113 0.07 0.256 0.105 0.432 0.105 c 0.144 0 0.268 -0.025 0.369 -0.076 c 0.101 -0.055 0.184 -0.125 0.246 -0.211 c 0.062 -0.086 0.107 -0.186 0.135 -0.299 c 0.031 -0.113 0.047 -0.231 0.047 -0.355 c 0 -0.312 -0.071 -0.543 -0.211 -0.691 c -0.136 -0.148 -0.34 -0.223 -0.609 -0.223 z" style="fill:#ececec;fill-opacity:1"/>
</svg>
